icons/girl_1015y.svg

<svg width="48" height="48" viewBox="0 0 48 48" fill="none" xmlns="http://www.w3.org/2000/svg">
<path fill-rule="evenodd" clip-rule="evenodd" d="M24 6C21.2386 6 19 8.23858 19 11C19 13.7614 21.2386 16 24 16C26.7614 16 29 13.7614 29 11C29 8.23858 26.7614 6 24 6ZM21 11C21 9.34315 22.3431 8 24 8C25.6569 8 27 9.34315 27 11C27 12.6569 25.6569 14 24 14C22.3431 14 21 12.6569 21 11Z" fill="black"/>
<path fill-rule="evenodd" clip-rule="evenodd" d="M17 19C17 18.4477 17.4477 18 18 18H30C30.5523 18 31 18.4477 31 19C31 19.0743 30.9919 19.1466 30.9765 19.2163C33.3503 19.932 35 22.3315 35 25.0227C35 27.5531 33.5496 29.8146 31.4057 30.6763C31.7068 31.2524 32.0063 31.785 32.265 32.2286C32.9535 33.409 32.3067 35.0081 30.878 35.2517C25.8515 36.1087 22.3021 36.086 16.8887 35.2453C15.408 35.0153 14.7531 33.3429 15.4845 32.1484C15.7588 31.7006 16.0709 31.165 16.3784 30.5829C14.3528 29.6594 13 27.4697 13 25.0227C13 22.3315 14.6497 19.932 17.0235 19.2163C17.0081 19.1466 17 19.0743 17 19ZM15 25.0227C15 22.6948 16.6675 21 18.5 21H20.9982C20.9965 21.1584 20.9935 21.3126 20.9887 21.4634C20.9661 22.176 20.9033 22.6954 20.7798 23.0762C20.6652 23.4296 20.5151 23.6149 20.3234 23.7357C20.1074 23.8718 19.7194 24 19 24V24.007C18.6772 23.9999 18.3669 23.9999 18.0805 24L18 24V26C19.158 26 20.2349 26.0098 21.0273 26.2645C21.4024 26.3851 21.6304 26.5369 21.7654 26.6977C21.8869 26.8425 22 27.0729 22 27.5C22 28.0262 21.9103 28.2953 21.8272 28.4355C21.7584 28.5516 21.6495 28.6572 21.3989 28.7512C21.1217 28.8551 20.7182 28.9258 20.1251 28.9629C19.5378 28.9996 18.8431 29 18 29V29.0048L17.9664 28.9988C16.3628 28.7164 15 27.1149 15 25.0227ZM23.2971 25.4117C22.9965 25.0536 22.6305 24.7938 22.2445 24.6033C22.436 24.3229 22.5779 24.0149 22.6823 23.693C22.8955 23.0354 22.9636 22.2855 22.9877 21.527C22.9931 21.3572 22.9964 21.1811 22.9981 21H25.0019C25.0036 21.1811 25.0069 21.3572 25.0123 21.527C25.0364 22.2855 25.1045 23.0354 25.3177 23.693C25.5398 24.3781 25.9322 25.0005 26.6104 25.4278C27.2641 25.8397 28.0733 26 29 26V29.1221L28.4617 29.1833L29.0571 30.4458C29.5535 31.4986 30.1047 32.4943 30.5374 33.2363L30.5398 33.2408L30.5409 33.2432L30.5421 33.2466L30.5428 33.2498C30.5431 33.2512 30.5432 33.2528 30.5433 33.2545C30.5436 33.2611 30.5422 33.2695 30.5387 33.2773L30.5368 33.281C25.7495 34.0968 22.4193 34.0801 17.1968 33.2691C17.1948 33.2667 17.1917 33.2623 17.1887 33.2553C17.1833 33.2429 17.1811 33.2298 17.1817 33.2191C17.1821 33.2105 17.1842 33.2026 17.1901 33.1929C17.5576 32.5928 17.9967 31.8322 18.4128 30.9998C19.0791 30.9989 19.6993 30.9934 20.2499 30.959C20.9068 30.9179 21.545 30.8324 22.1011 30.6238C22.6838 30.4053 23.1999 30.0422 23.5478 29.4551C23.8814 28.8922 24 28.2238 24 27.5C24 26.6771 23.7659 25.97 23.2971 25.4117ZM31 28.6541C32.1494 28.0226 33 26.6787 33 25.0227C33 22.6948 31.3325 21 29.5 21H27.0018C27.0035 21.1584 27.0065 21.3126 27.0113 21.4634C27.0339 22.176 27.0967 22.6954 27.2202 23.0762C27.3348 23.4296 27.4849 23.6149 27.6766 23.7357C27.8926 23.8718 28.2806 24 29 24H31V28.6541Z" fill="black"/>
<path d="M20.3009 41.8743C19.5561 41.7745 19 41.139 19 40.3875V37.0138C20.3654 37.2166 21.6318 37.347 22.8677 37.4067L21.9471 40.7822C21.7494 41.5072 21.0457 41.974 20.3009 41.8743Z" fill="black"/>
<path d="M27.0529 40.7822L26.1304 37.3999C27.367 37.3354 28.634 37.2016 30 37V40.3875C30 41.139 29.4439 41.7745 28.6991 41.8743C27.9543 41.974 27.2506 41.5072 27.0529 40.7822Z" fill="black"/>
</svg>

<svg
  xmlns="http://www.w3.org/2000/svg"
  width="24"
  height="24"
  viewBox="0 0 24 24"
  fill="none"
  stroke="currentColor"
  stroke-width="2"
  stroke-linecap="round"
  stroke-linejoin="round"
>
  <path
    fill-rule="evenodd"
    d="M24 6a5 5 0 1 0 0 10 5 5 0 0 0 0-10m-3 5a3 3 0 1 1 6 0 3 3 0 0 1-6 0"
    clip-rule="evenodd"
  />
  <path
    fill-rule="evenodd"
    d="M17 19a1 1 0 0 1 1-1h12a1 1 0 0 1 .977 1.216C33.35 19.932 35 22.331 35 25.023c0 2.53-1.45 4.792-3.594 5.653.3.576.6 1.109.859 1.553.688 1.18.042 2.78-1.387 3.023-5.026.857-8.576.834-13.99-.007-1.48-.23-2.135-1.902-1.404-3.097.275-.447.587-.983.894-1.565C14.353 29.659 13 27.47 13 25.023c0-2.692 1.65-5.091 4.023-5.807A1 1 0 0 1 17 19m-2 6.023C15 22.695 16.668 21 18.5 21h2.498q-.003.237-.01.463c-.022.713-.085 1.232-.208 1.613-.115.354-.265.539-.457.66-.216.136-.604.264-1.323.264v.007a41 41 0 0 0-.92-.007H18v2c1.158 0 2.235.01 3.027.265.375.12.603.272.738.433.122.145.235.375.235.802 0 .526-.09.795-.173.936-.069.116-.178.221-.428.315-.277.104-.68.175-1.274.212C19.538 29 18.843 29 18 29v.005l-.034-.006C16.363 28.716 15 27.115 15 25.023m8.297.389a3.2 3.2 0 0 0-1.053-.809c.192-.28.334-.588.438-.91.213-.658.282-1.408.306-2.166q.007-.255.01-.527h2.004q.003.272.01.527c.024.758.093 1.508.306 2.166.222.685.614 1.307 1.292 1.735.654.412 1.463.572 2.39.572v3.122l-.538.061.595 1.263a37 37 0 0 0 1.48 2.79l.003.005v.002l.002.004v.003l.001.005a.1.1 0 0 1-.004.022l-.002.004c-4.787.816-8.118.8-13.34-.012l-.008-.014a.1.1 0 0 1-.007-.036q0-.011.008-.026c.368-.6.807-1.36 1.223-2.193.666-.001 1.286-.007 1.837-.041.657-.041 1.295-.127 1.851-.335.583-.219 1.099-.582 1.447-1.169.333-.563.452-1.231.452-1.955 0-.823-.234-1.53-.703-2.088M31 28.654c1.15-.631 2-1.975 2-3.631C33 22.695 31.332 21 29.5 21h-2.498q.003.237.01.463c.022.713.085 1.232.208 1.613.115.354.265.539.457.66.216.136.604.264 1.323.264h2z"
    clip-rule="evenodd"
  />
  <path d="M20.3 41.874a1.5 1.5 0 0 1-1.3-1.486v-3.374c1.365.203 2.632.333 3.868.393l-.92 3.375a1.5 1.5 0 0 1-1.647 1.092" />
  <path d="M27.053 40.782 26.13 37.4A41 41 0 0 0 30 37v3.388a1.5 1.5 0 0 1-2.947.394" />
</svg>
